dist/img/footer-telegram.svg

<svg width="26" height="26" viewBox="0 0 26 26" fill="none" xmlns="http://www.w3.org/2000/svg">
<path d="M21.1819 3.24657C20.921 3.26555 20.665 3.32674 20.4238 3.42776H20.4206C20.189 3.51957 19.0881 3.9827 17.4143 4.6847L11.4164 7.21076C7.11262 9.02263 2.88193 10.8069 2.88193 10.8069L2.93231 10.7874C2.93231 10.7874 2.64062 10.8833 2.33593 11.0921C2.1477 11.2119 1.98573 11.3686 1.85981 11.5528C1.71031 11.7721 1.59006 12.1077 1.63475 12.4546C1.70787 13.0413 2.08812 13.3931 2.36112 13.5873C2.63737 13.7839 2.90062 13.8757 2.90062 13.8757H2.90712L6.87456 15.2123C7.0525 15.7834 8.08356 19.1732 8.33137 19.954C8.47762 20.4204 8.61981 20.7121 8.79775 20.9347C8.88387 21.0485 8.98462 21.1435 9.10568 21.2199C9.16862 21.2565 9.23573 21.2854 9.30556 21.306L9.26493 21.2963C9.27712 21.2995 9.28687 21.3093 9.29581 21.3125C9.32831 21.3215 9.35025 21.3247 9.39168 21.3312C10.0197 21.5213 10.5243 21.1313 10.5243 21.1313L10.5527 21.1086L12.8952 18.9758L16.8212 21.9877L16.9106 22.0259C17.7287 22.385 18.5575 22.1851 18.9954 21.8325C19.4366 21.4774 19.6081 21.0233 19.6081 21.0233L19.6365 20.9501L22.6704 5.40782C22.7565 5.02432 22.7784 4.6652 22.6834 4.31663C22.5853 3.96387 22.359 3.66046 22.0488 3.46595C21.7883 3.3076 21.4863 3.23117 21.1819 3.24657ZM21.0998 4.9122C21.0966 4.96338 21.1063 4.9577 21.0836 5.05601V5.06495L18.0781 20.4456C18.0651 20.4675 18.0432 20.5154 17.9831 20.5634C17.9197 20.6138 17.8693 20.6455 17.6052 20.5406L12.8034 16.8592L9.90275 19.5031L10.5121 15.6112L18.3576 8.2987C18.681 7.99807 18.5729 7.9347 18.5729 7.9347C18.5957 7.56582 18.0846 7.82663 18.0846 7.82663L8.19162 13.9553L8.18837 13.9391L3.44662 12.3425V12.3393L3.43443 12.3368C3.44275 12.3341 3.45089 12.3308 3.45881 12.3271L3.48481 12.3141L3.51 12.3051C3.51 12.3051 7.74393 10.5209 12.0477 8.70901C14.2025 7.80145 16.3735 6.88738 18.0432 6.18213C19.7129 5.48095 20.9471 4.96663 21.0169 4.93901C21.0836 4.91301 21.0519 4.91301 21.0998 4.91301V4.9122Z" fill="white"/>
</svg>

<svg width="26" height="26" fill="none" xmlns="http://www.w3.org/2000/svg"><path d="M21.182 3.247c-.261.019-.517.08-.758.18h-.003c-.232.093-1.333.556-3.007 1.258L11.416 7.21c-4.303 1.812-8.534 3.596-8.534 3.596l.05-.02s-.291.096-.596.305a1.65 1.65 0 0 0-.476.46c-.15.22-.27.556-.225.903.073.586.453.938.726 1.132.276.197.54.289.54.289h.006l3.968 1.336c.178.571 1.209 3.961 1.456 4.742.147.466.289.758.467.98.086.114.187.21.308.286a.91.91 0 0 0 .2.086l-.041-.01c.012.003.022.013.03.017.033.009.055.012.097.018.628.19 1.132-.2 1.132-.2l.029-.022 2.342-2.133 3.926 3.012.09.038c.818.359 1.646.16 2.084-.194.442-.355.613-.809.613-.809l.029-.073L22.67 5.408c.086-.384.108-.743.013-1.091a1.468 1.468 0 0 0-.634-.851 1.52 1.52 0 0 0-.867-.22ZM21.1 4.912c-.003.051.006.046-.016.144v.009l-3.006 15.38c-.013.023-.035.07-.095.118-.063.05-.114.082-.378-.022l-4.802-3.682-2.9 2.644.61-3.892L18.357 8.3c.323-.3.215-.364.215-.364.023-.37-.488-.108-.488-.108l-9.893 6.128-.004-.016-4.741-1.597v-.003l-.013-.002a.213.213 0 0 0 .025-.01l.026-.013.025-.009 8.538-3.596 5.995-2.527c1.67-.701 2.904-1.215 2.974-1.243.067-.026.035-.026.083-.026Z" fill="#fff"/></svg>
